!!!Melodie: eigene
!!!Typ: Lied
**kern	**silbe	**silbe	**silbe	**silbe	**silbe	**silbe	**silbe	**silbe	**silbe	**silbe	**silbe	**silbe	**silbe	**silbe	**silbe	**silbe	**silbe	**silbe	**silbe	**silbe	**silbe	**silbe	**silbe	**silbe	**silbe	**silbe	**silbe	**silbe
*clefG2	*lang:DE	*lang:DE	*lang:DE	*lang:DE	*lang:DE	*lang:DE	*lang:DE	*lang:DE	*lang:DE	*lang:DE	*lang:DE	*lang:DE	*lang:DE	*lang:DE	*lang:DE	*lang:DE	*lang:DE	*lang:DE	*lang:DE	*lang:DE	*lang:DE	*lang:DE	*lang:DE	*lang:DE	*lang:DE	*lang:DE	*lang:DE	*lang:DE
*k[f#,c#]	*	*	*	*	*	*	*	*	*	*	*	*	*	*	*	*	*	*	*	*	*	*	*	*	*	*	*	*
*M4/4	*	*	*	*	*	*	*	*	*	*	*	*	*	*	*	*	*	*	*	*	*	*	*	*	*	*	*	*
*met(c)	*	*	*	*	*	*	*	*	*	*	*	*	*	*	*	*	*	*	*	*	*	*	*	*	*	*	*	*
4r	%	%	%	%	%	%	%	%	%	%	%	%	%	%	%	%	%	%	%	%	%	%	%	%	%	%	%	%
4a	Es	die	Was	er#	Es	als	Nicht	wie#	Noch	Da#	Und	so	Da#	Nun	Es	der	Es	das	Die	denn	Die	wann	Ob	denn	Sei	Gott	Sein	das
4a	ist	Werk’	Gott	#hub	war	ob	mög#	#wohl	muss	#rum	wenn	ler#	#ran	sagst	ist	Glaub’	wird	E#	Werk’,	das	Hoff#	das	sich’s	wo	Lob	Va#	Reich	täg#
4a	das	die	im	sich	ein	wir	#lich	es	das	schickt	es	#ne	ich	du,	ge#	gibt	die	#van#	die	nicht	#nung	ge#	an#	er	und	#ter,	zu#	#lich'
=	=	=	=	=	=	=	=	=	=	=	=	=	=	=	=	=	=	=	=	=	=	=	=	=	=	=	=	=
8La	Heil	hel#	G#setz	Zorn	fal#	möch#	war	oft	G'setz	Gott	nun	jetzt	kei#	dass	#recht	aus	Sünd’	#ge#	kom#	rech#	wart'	#sche#	#ließ,	ist	Ehr’	Sohn,	#komm',	Brot
8Jb	|	|	|	|	|	|	|	|	|	|	|	|	|	|	|	|	|	|	|	|	|	|	|	|	|	|	|	|
4cc	uns	#fen	ge#	und	#scher	#ten	die	ver#	er#	sein’n	er#	ein	#nen	kein	vor	von	durchs’	#lium	#men	#ter	zur	#hen	als	am	mit	hei#	sein	ja
4b	kom#	nim#	#bo#	gro#	Wahn	sel#	sel#	su#	#fül#	Sohn	#fül#	from#	Zwei#	Mensch	Gott	ihm	G’setz	kommt	g’wiß#	Glau#	rech#	soll	wollt’	bes#	ho#	#li#	Will’	heut’
4a	#men	#mer#	#ten	#ße	da#	#ber	#be	#chet	#let	her#	#let	#mer	#fel	ver#	al#	den	er#	zur	#lich	#ben	#ten	zur	er	#ten	#hem	#gem	auf	uns
=	=	=	=	=	=	=	=	=	=	=	=	=	=	=	=	=	=	=	=	=	=	=	=	=	=	=	=	=
4;g	her	#mehr,	hat,	Not	#bei,	frei	Art,	ward,	sein,	#ein,	ist,	Christ	trag’,	#zag,	#lein,	Schein,	#kannt	Hand	her	wär’,	Zeit,	Freud’,	nicht,	mit,	Preis,	Geist!	Erd’	werd’,
4a	aus	sie	da	vor	Gott	nach	aus	doch	sonst	der	durch	des	dein	das	der	so	und	und	aus	dem	was	setzt	lass	da	um	Der	g’scheh	wollst
4f#	Gnad’	mö#	man	Gott	hätt’	sei#	ei#	mehrt	wär’n	sel#	den,	Glau#	Wort	wirst	die#	er	schlägt	stärkt	ei#	man	Got#	Gott	dich	will	die#	woll’	wie	uns#
4d	und	#gen	es	so	sein	#nem	#g'nen	sich	wir	#ber	der	#bens	kann	du	#sen	die	das	den	#nem	die	#tes	kein	es	er’s	#ser	mit	ins	#ser'
=	=	=	=	=	=	=	=	=	=	=	=	=	=	=	=	=	=	=	=	=	=	=	=	=	=	=	=	=
4f#	lau#	nicht	nicht	man#	G'setz	Wil#	Kräf#	Sünd’	all	Mensch	es	recht’	nicht	nim#	Glau#	Werk	G’wis#	Sün#	rech#	Werk’	Wort	g’wis#	nicht	nicht	Wohl#	Gnad’	Him#	Schuld
4g#	#ter	be#	konnt’	#nig#	drum	#le	#ten	und	ver#	ist	konnt’	Ge#	be#	#mer	#ben	nicht	#sen	#der	#ten	wollt’	zu#	#se	er#	ent#	#tat	er#	#mels	ver#
(4a	Gü#	#hü#	hal#	#fal#	‘ge#	le#	las#	Mas#	#dor#	‘wor#	hal#	#stal#	#trü#	lü#	fas#	las#	nie#	wie#	Glau#	rau#	#sa#	Ta#	#schrek#	#dek#	wil#	#fül#	Thro#	#scho#
4b)	|	|	|	|	|	|	|	|	|	|	|	|	|	|	|	|	|	|	|	|	|	|	|	|	|	|	|	|
=	=	=	=	=	=	=	=	=	=	=	=	=	=	=	=	=	=	=	=	=	=	=	=	=	=	=	=	=
1;a	#te;	#ten;	#ten,	#ten;	#ben,	#ben:	#sen,	#sen.	#ben;	#den,	#ten;	#te.	#gen.	#gen;	#set:	#set;	#der,	#der,	#ben:	#ben.	#get:	#ge.	#ken,	#ken.	#len,	#len,	#ne	#nen,
=:|	=	=	=	=	=	=	=	=	=	=	=	=	=	=	=	=	=	=	=	=	=	=	=	=	=	=	=	=
4r	.	%	.	%	.	%	.	%	.	%	.	%	.	%	.	%	.	%	.	%	.	%	.	%	.	%	.	%
4a	.	Der	.	vom	.	so	.	Denn	.	das	.	Nicht	.	Wer	.	mit	.	Er	.	Doch	.	Er	.	Sein	.	was	.	als
4dd	.	Glaub’	.	Fleisch	.	ist	.	Gleiß#	.	ganz’	.	mehr	.	glaubt	.	Gott	.	spricht:	.	macht	.	weiß	.	Wort	.	er	.	wir
4cc#	.	sieht	.	wollt’	.	es	.	#ners	.	Ge#	.	denn:	.	an	.	der	.	Nur	.	al#	.	wohl,	.	lass	.	in	.	auch
=	=	=	=	=	=	=	=	=	=	=	=	=	=	=	=	=	=	=	=	=	=	=	=	=	=	=	=	=
4b	.	Je#	.	nicht	.	nur	.	Werk’	.	#setz	.	Lie#	.	dich	.	Glaub’	.	kreuch	.	#lein	.	wann’s	.	dir	.	uns	.	un#
4cc#	.	#sum	.	he#	.	ein	.	Gott	.	hat	.	#ber	.	und	.	ist	.	zum	.	der	.	am	.	ge#	.	ang#	.	#ser'n
4dd	.	Chris#	.	#raus	.	Spie#	.	hoch	.	er	.	Her#	.	wird	.	wohl	.	Kreuz	.	Glaub’	.	bes#	.	#wis#	.	#'fang#	.	Schuld#
4b	.	#tum	.	der	.	#gel	.	ver#	.	er#	.	#re	.	ge#	.	da#	.	her#	.	ge#	.	#ten	.	#ser	.	#en	.	#'gern
=	=	=	=	=	=	=	=	=	=	=	=	=	=	=	=	=	=	=	=	=	=	=	=	=	=	=	=	=
4;a	.	an,	.	Geist,	.	zart,	.	#dammt,	.	#füllt,	.	mein!	.	#tauft,	.	#ran,	.	#zu,	.	#recht,	.	ist,	.	sein,	.	hat,	.	tun,
4a	.	der	.	vom	.	der	.	und	.	da#	.	Dein	.	dem#	.	dem	.	im	.	die	.	und	.	und	.	zu	.	lass
4dd	.	hat	.	G'setz	.	uns	.	je#	.	#mit	.	Tod	.	#sel#	.	Näch#	.	G’setz	.	Wer#	.	braucht	.	ob	.	Eh#	.	uns
4a	.	g’nug	.	er#	.	zeigt	.	#dem	.	sein’s	.	soll	.	#ben	.	#sten	.	ist	.	#ke	.	an	.	dein	.	#ren	.	nicht
=	=	=	=	=	=	=	=	=	=	=	=	=	=	=	=	=	=	=	=	=	=	=	=	=	=	=	=	=
4b	.	für	.	#for#	.	an	.	Fleisch	.	Va#	.	mir	.	ist	.	wird	.	we#	.	sind	.	uns	.	Fleisch	.	sei#	.	in
4f#	.	uns	.	#dert	.	die	.	der	.	#ters	.	das	.	der	.	die	.	#der	.	des	.	kein’	.	spräch	.	#ner	.	Ver#
4a	.	all’	.	al#	.	sün#	.	Sün#	.	Zorn	.	Le#	.	Himm’l	.	Lieb’	.	Rast	.	näch#	.	ar#	.	lau#	.	Ma#	.	#such#
4g	.	ge#	.	#ler#	.	#d'ge	.	#de	.	ge#	.	#ben	.	er#	.	Gut’s	.	noch	.	#sten	.	#ge	.	#ter	.	#jes#	.	#ung
=	=	=	=	=	=	=	=	=	=	=	=	=	=	=	=	=	=	=	=	=	=	=	=	=	=	=	=	=
4;f#	.	#than;	.	#meist;	.	Art,	.	Schand’	.	#stillt,	.	sein,	.	#kauft,	.	tun,	.	Ruh’	.	Knecht,	.	List,	.	Nein,	.	#tät,	.	steh’n,
4f#	.	er	.	es	.	in	.	all#	.	der	.	du	.	dass	.	bist	.	mit	.	da#	.	des	.	so	.	dass	.	lös’
4e	.	ist	.	war	.	un#	.	#zeit	.	ü#	.	hast	.	er	.	du	.	al#	.	#bei	.	soll’n	.	lass	.	g’hei#	.	uns
4g	.	der	.	mit	.	#ser'm	.	war	.	#ber	.	für	.	nicht	.	aus	.	#len	.	wir’n	.	wir	.	doch	.	#ligt	.	vom
=	=	=	=	=	=	=	=	=	=	=	=	=	=	=	=	=	=	=	=	=	=	=	=	=	=	=	=	=
4f#	.	Mitt#	.	uns	.	Fleisch	.	an#	.	uns	.	mich	.	werd’	.	Gott	.	sei#	.	Glau#	.	ihm	.	dir	.	werd’	.	Üb’l,
4e	.	#ler	.	ver#	.	ver#	.	#ge	.	ging	.	be#	.	ver#	.	ge#	.	#nen	.	#ben	.	ver#	.	nicht	.	sein	.	A#
(4f#	.	‘wor#	.	#lo#	.	#bor#	.	#bo#	.	al#	.	#zah#	.	#lor#	.	#bo#	.	Wer#	.	mer#	.	#trau#	.	grau#	.	Na#	.	|
4e)	.	|	.	|	.	|	.	|	.	|	.	|	.	|	.	|	.	|	.	|	.	|	.	|	.	|	.	|
=	=	=	=	=	=	=	=	=	=	=	=	=	=	=	=	=	=	=	=	=	=	=	=	=	=	=	=	=
1;d	.	#den.	.	#ren.	.	#gen.	.	#ren.	.	#le.	.	#let.	.	#en.	.	#ren.	.	#ken.	.	#ken.	.	#en.	.	#en.	.	#me.	.	#men.
==	==	==	==	==	==	==	==	==	==	==	==	==	==	==	==	==	==	==	==	==	==	==	==	==	==	==	==	==
*-	*-	*-	*-	*-	*-	*-	*-	*-	*-	*-	*-	*-	*-	*-	*-	*-	*-	*-	*-	*-	*-	*-	*-	*-	*-	*-	*-	*-
